!!!COM: Chopin, Frederic
!!!CDT: 1810///-1849///
!!!OTL: Mazurka 50 in A Minor
!!!OTL: Mazurka 55 in A Minor
!!!OMD: Allegretto
**kern	**kern	**dynam
*staff2	*staff1	*staff1/2
*clefF4	*clefG2	*clefG2
*k[]	*k[]	*k[]
*a:	*a:	*a:
*M3/4	*M3/4	*M3/4
*MM112	*MM112	*MM112
4r	4c/ 4e/ 4a/	p
=1	=1	=1
4r	4c/ 4e/ 4a/	.
4.E\	4.B/ 4.e/ 4.g#/	.
8E\	8A/ 8e/ 8f#/	.
=2	=2	=2
8.E/L	8.B/ 8.e/ 8.g#/L	.
16AA/Jk	16c/ 16e/ 16a/Jk	.
2E\	2e/ 2g#/ 2cc/	.
=3	=3	=3
8.EE/L	8.d/ 8.e/ 8.b/L	.
16AA/Jk	16c/ 16e/ 16a/Jk	.
4E\	4B/ 4e/ 4g#/	.
4EE/	4A/ 4e/ 4f#/	.
=4	=4	=4
[4E\	8.B/ 8.e/ 8.g#/L	.
.	16d/ 16e/ 16b/Jk	.
(8E\L]	2c/ 2e/ 2a/	.
8Fn\	.	.
8E\	.	.
8AA\J)	.	.
=5	=5	=5
4GG/	4e/ 4gn/ (4cc/	.
4.G\	4.d/ 4.g/ 4.b/	.
8G\	8c/ 8g/ 8a/	.
=6	=6	=6
8.G\L	8.d/ 8.g/ 8.b/L	<
16C\Jk	16e/ 16g/ 16cc/Jk	.
2G\	2g\ 2b\ 2ee\	.
=7	=7	=7
8.GG/L	8.f/ 8.g/ 8.dd/L	.
16C/Jk	16e/ 16g/ 16cc/Jk	.
4G\	4d/ 4g/ 4b/	.
4GG/	4c/ 4g/ 4a/	.
=8	=8	=8
4G\	8.d/ 8.g/ 8.b/L	.
.	16f/ 16g/ 16dd/Jk	>
4C/	4e/ 4g/ 4cc/	.
8.D\L	8.d/ 8.f/ 8.b/L	.
16D#\Jk	16c/ 16f#/ 16a/Jk	.
=9	=9	=9
2E\	4c/ 4e/ 4a/	p
.	4.B/ 4.e/ 4.g#/	.
[4E\	.	.
.	8A/ 8e/ 8f#/	.
=10	=10	=10
8.E/L]	8.B/ 8.e/ 8.g#/L	.
16AA/Jk	16c/ 16e/ 16a/Jk	.
2E\	2e/ 2g#/ 2cc/	.
=11	=11	=11
8.EE/L	8.d/ 8.e/ 8.b/L	.
16AA/Jk	16c/ 16e/ 16a/Jk	.
4E\	4B/ 4e/ 4g#/	.
4EE/	4A/ 4e/ 4f#/	.
=12	=12	=12
[4E\	8.B/ 8.e/ 8.g#/L	.
.	16d/ 16e/ 16b/Jk	.
(8E\L]	2c/ 2e/ 2a/)	.
8Fn\	.	.
8E\	.	.
8AA\J)	.	.
=13	=13	=13
4GG/	4e/ 4gn/ (4cc/	p
4.G\	4.d/ 4.g/ 4.b/	.
8G\	8c/ 8g/ 8a/	.
=14	=14	=14
8.G\L	8.d/ 8.g/ 8.b/L	.
16C\Jk	16e/ 16g/ 16cc/Jk	.
2G\	2g\ 2b\ 2ee\	.
=15	=15	=15
8.GG/L	8.f/ 8.g/ 8.dd/L	.
16C/Jk	16e/ 16g/ 16cc/Jk	.
4G\	4d/ 4g/ 4b/	.
4GG/	4c/ 4g/ 4a/	.
=16	=16	=16
4G\	8.d/ 8.g/ 8.b/L	.
.	16f/ 16g/ 16dd/Jk	.
4C/	2e/ 2g/ 2cc/)	.
[4c^\	.	.
=17	=17	=17
*	*^	*
8.c\L]	(8.cc/L	4e\ 4g\	>
16B\Jk	16cc/Jk	.	.
12A\L	4..cc/	2f\ 2a\	.
12B\	.	.	.
12A\J	.	.	.
8G\L	.	.	.
8F\J	.	.	.
.	16dd/	.	.
=18	=18	=18	=18
8.E\L	4r	8g\ 8ee\L	.
.	.	16r	.
16D\Jk	.	16e\ 16g#\ 16ee\Jk	.
12C/L	4a/	2e\ 2ee\	.
12D/	.	.	.
12C/J	.	.	.
8BB/L	8b/L	.	.
8AA/J	8cc/J	.	.
*	*v	*v	*
=19	=19	=19
8.GGn/L	8.e\ 8.b\ 8.ee\L	.
16FF#/Jk	16a\ 16b\ 16ee\Jk	.
4EE/	4gn\ 4b\ 4ee\	.
4BBB/	4f#/ [4b/ 4dd#/)	.
=20	=20	=20
4EEE/	2.e/ 2.g#/ 2.b/] (2.ee/	.
4EE/	.	.
4E\	.	.
=21	=21	=21
*	*^	*
8.c\L	8.a/L	4e\	p
16B\Jk	16a/Jk	.	.
12A\L	4..f/ 4..a/	2d\ 2a\	.
12B\	.	.	.
12A\J	.	.	.
8Gn\L	.	.	.
8Fn\J	.	.	.
.	16b/	.	.
=22	=22	=22	=22
8.E\L	8.cc/L	4c\ 4a\	.
16D\Jk	16cc/Jk	.	.
12C/L	[2a/ [2cc/	[2e\	.
12D/	.	.	.
12C/J	.	.	.
8BB/L	.	.	.
8AA/J	.	.	.
*	*v	*v	*
=23	=23	=23
8.GG/L	8.e/] 8.a/] 8.cc/L]	.
16FF/Jk	16d#/ 16a/ 16cc/Jk	.
4EE/	4e/ 4a/ 4cc/	.
4EEE/	&(4dn/&) [4e/ 4g#/ 4b/	.
=24	=24	=24
4AAA/	4c/ 4e/] 4a/)	.
4AA/	4r	.
4A\	4r	.
=25	=25	=25
*	*^	*
8.c\L	8.g/L	4e\	.
16B\Jk	16cc/Jk	.	.
12A\L	4..cc/	2f\ 2a\	.
12B\	.	.	.
12A\J	.	.	.
8G\L	.	.	.
8F\J	.	.	.
.	16dd/	.	.
=26	=26	=26	=26
8.E\L	4r	8g\ 8ee\L	.
.	.	16r	.
16D\Jk	.	16e\ 16g#\ 16ee\Jk	.
12C/L	4a/	2e\ 2ee\	.
12D/	.	.	.
12C/J	.	.	.
8BB/L	8b/L	.	.
8AA/J	8cc/J	.	.
*	*v	*v	*
=27	=27	=27
8.GGn/L	8.e\ 8.b\ 8.ee\L	.
16FF#/Jk	16a\ 16b\ 16ee\Jk	.
4EE/	4gn\ 4b\ 4ee\	.
4BBB/	4f#/ [4b/ 4dd#/	.
=28	=28	=28
4EEE/	2.e/ 2.g#/ 2.b/] 2.ee/	.
4EE/	.	.
4E\	.	.
=29	=29	=29
*	*^	*
8.c\L	(8.a/L	4e\	.
16B\Jk	16a/Jk	.	.
12A\L	4..fn/	2d\ 2a\	.
12B\	.	.	.
12A\J	.	.	.
8Gn\L	.	.	.
8Fn\J	.	.	.
.	16b/	.	.
=30	=30	=30	=30
8.E\L	8.cc/L	4c\ 4a\	.
16D\Jk	16cc/Jk	.	.
12C/L	2r	[2e/ [2a/ [2cc/	.
12D/	.	.	.
12C/J	.	.	.
8BB/L	.	.	.
8AA/J	.	.	.
*	*v	*v	*
=31	=31	=31
8.GG/L	8.e/] 8.a/] 8.cc/L]	.
16FF/Jk	16d#/ 16a/ 16cc/Jk	.
4EE/	[4e/ 4a/ 4cc/	.
4EEE/	4dn/ 4e/] 4g#/ 4b/	.
=32	=32	=32
*^	*^	*
4r	4AAA\	2.a/	4r	.
4r	&(2AA\&)	.	4r	.
4E/	.	.	4c#\ 4e\	.
*v	*v	*	*	*
*	*v	*v	*
=33	=33	=33
*k[f#c#g#]	*k[f#c#g#]	*k[f#c#g#]
*^	*^	*
2B/	4r	2b/	4r	p
.	4E\	.	4d\ 4e\ 4g#\	.
4d/	4r	4dd/	4r	.
*v	*v	*	*	*
*	*v	*v	*
=34	=34	=34
&(8c#\L&)	8.cc#/L	.
16r	.	.
(16AA\Jk	16c#/ 16e/ 16g#/Jk	>
4B\	4b/	.
4A\)	4c#/ 4e/ 4a/)	.
=35	=35	=35
*^	*^	*
2d/	4r	(2dd/	4r	.
.	4D\ 4A\	.	4f#\ 4a\	.
4f#/	4r	4ff#/	4r	.
*v	*v	*	*	*
=36	=36	=36	=36
2.r	8.ff#/L	8.f#\L	.
.	16a/ 16cc#/ 16dd#/Jk	16A\ 16d#\Jk	.
.	4ff#/	4f#\	>
.	4a/ 4cc#/ 4ee/)	4e\	.
=37	=37	=37	=37
2.r	(8.ff#/L	8.f#\L	.
.	16g#/ 16ddn/Jk 16dd#/	16E\Jk	.
.	4ff#/	4f#\	.
.	4g#/ 4ddn/ 4ee/	4e\	.
=38	=38	=38	=38
2.r	8aa/L)	8a\L	.
.	16r	16r	.
.	16a/ 16cc#/ (16dd#/Jk	16d#\Jk	.
.	4ff#/	4f#\	.
.	4a/ 4cc#/ 4ee/)	4e\	.
*	*v	*v	*
=39	=39	=39
8.c#\L	(8.cc#/L	.
16BB\Jk	16d#/ 16an/Jk 16a#/	.
4c#\	4cc#/	.
&(4B\&)	4d#/ 4an/ 4b/	.
=40	=40	=40
8.c#\L	8.cc#/L	.
16E\ (16A#\Jk	16e/ 16g#/ 16a#/Jk	.
4c#\	4cc#/	.
4B\)	4e/ 4g#/ 4b/)	.
=41	=41	=41
*^	*^	*
2B/	4r	(2b/	4r	.
.	4BB\ 4F#\	.	4dn\ 4f#\	.
4d/	4r	4dd/	4r	.
*v	*v	*	*	*
*	*v	*v	*
=42	=42	=42
&(8.c#\L&)	8.cc#/L	.
(16FF#\Jk	16c#/ 16f#/ 16g#/Jk	.
4B\	4b/	.
4A\)	4c#/ 4f#/ 4a/)	.
=43	=43	=43
*^	*^	*
2d/	4r	(2dd/	4r	.
.	4D\ 4A\	.	4f#\ 4a\	.
4f#/	4r	4ff#/	4r	.
*v	*v	*	*	*
=44	=44	=44	=44
2.r	8.ff#/L	8.f#\L	.
.	16a/ 16cc#/ 16dd#/Jk	16A\ 16d#\Jk	.
.	4ff#/	4f#\	.
.	4a/ 4cc#/ 4ee/)	4e\	.
=45	=45	=45	=45
2.r	(8.ff#/L	8.f#\L	.
.	16g#/ 16ddn/Jk 16dd#/	16E\Jk	.
.	4ff#/	4f#\	.
.	4g#/ 4ddn/ 4ee/	4e\	.
=46	=46	=46	=46
2.r	8ccc#/L)	8cc#\L	.
.	16r	16r	.
.	16a/ 16cc#/ 16dd#/Jk	(16d#\Jk	.
.	4ff#/	4f#\	.
.	4a/ 4cc#/ &(4ee/&)	4e\)	.
*	*v	*v	*
=47	=47	=47
8.dn\L	(8.ddn/L	.
16c#\Jk	16e/ 16a/ 16cc#/Jk	.
4d\	4dd\	.
&(4c#\&)	4e/ 4a/ 4cc#/	.
=48	=48	=48
(8.B\L	8.b/L	.
16A\Jk	16c#/ 16e/ 16a/Jk	.
4B\	4b/	.
4A\)	4c#/ 4e/ 4a/)	.
=49	=49	=49
*^	*^	*
2G#/	4r	(2g#/	4r	p
.	4C#\	.	4c#\ 4e\	.
4c#/	4r	4cc#/	4r	.
*v	*v	*	*	*
*	*v	*v	*
=50	=50	=50
8B#\L	8.b#/L	.
16r	.	.
(16GG#\Jk	16B#/ 16f#/ 16g#/Jk	.
4A\	4a/	.
4G#\)	4B#/ 4f#/ 4g#/)	.
=51	=51	=51
*^	*^	*
2G#/	4r	2g#/	4r	.
.	4C#\	.	4c#\ 4e\	.
4c#/	4r	4cc#/	4r	.
*v	*v	*	*	*
*	*v	*v	*
=52	=52	=52
8.Bn\L	8.bn/L	.
(16GG#\Jk	16Bn/ 16e#/ 16g#/Jk	.
4A\	4a/	.
4G#\)	4B/ 4d/ 4g#/	.
=53	=53	=53
*^	*^	*
2E/	4r	(2e/	4r	.
.	4AA\	.	4A\ 4c#\	.
4A/	4r	4a/	4r	.
*v	*v	*	*	*
*	*v	*v	*
=54	=54	=54
8.G#\L	8g#/L	.
.	16r	.
(16EE\Jk	16G#/ 16B/ 16e/Jk	.
4F#\	4f#/	.
4E\)	4G#/ 4B/ 4e/)	.
=55	=55	=55
8.G#\L	(8.g#/L	.
16FF#\Jk	16A#/ 16e/ 16f#/Jk	.
4G#\	4g#/	.
&(4F#\&)	4A#/ 4e/ 4f#/	.
=56	=56	=56
8.G#\L	8.g#/L	.
(16BB\ 16F#\Jk	16B/ 16d#/ 16f#/Jk	.
4G#\	4g#/	.
4F#\)	4B/ 4d#/ 4f#/)	.
=57	=57	=57
*	*^	*
8.FF#/L	(2a/	2.A\ 2.c#\	p
16GG#/Jk	.	.	.
4FF#/	.	.	.
4AA/	4f#/	.	.
*	*v	*v	*
=58	=58	=58
*^	*	*
2.G#/ 2.c#/	8.C#\L	8.e/L	.
.	16D#\Jk	16d#/Jk	.
.	4C#\	4e/	.
.	&(4E\&)	4c#/)	.
=59	=59	=59	=59
2.A/ 2.c#/	8FF#\L	(2a/	.
.	8GG#\	.	.
.	8FF#\	.	.
.	8GG#\	.	.
.	8AA\	8g#/L	.
.	8BB\J	8f#/J	.
=60	=60	=60	=60
2.G#/ 2.c#/	8.C#\L	8.e/L	.
.	16D#\Jk	16d#/Jk	.
.	4C#\	4e/	.
.	&(4E\&)	4c#/)	.
*v	*v	*	*
=61	=61	=61
*	*^	*
4BB/	4d#/ (4f#/	[2.B\	.
4.E\	4.e/ 4.g#/	.	.
8F#\	8d#/ 8a/	.	.
=62	=62	=62	=62
8.E\L	8.e/ 8.g#/L	8B\]	>
.	.	8r	.
16cn\Jk	16d#/ 16f#/Jk	.	.
4B\	4e/ 4g#/	4r	.
&(4F#\&)	4d#/ 4a/)	4r	.
*	*v	*v	*
=63	=63	=63
8.E\L	8.e/ (8.g#/L	.
16cn\Jk	16d#/ 16f#/Jk	.
4B\	4e/ 4g#/	.
4F#\	4d#/ 4a/	.
=64	=64	=64
8.E\L	8.e/ 8.g#/L	.
16cn\Jk	16d#/ 16f#/Jk	.
4B\	4e/ 4g#/	.
&(4F#\&)	4d#/ 4a/	.
=65	=65	=65
*^	*^	*
4r	2.E\	2b/	4r	.
4B/	.	.	4d\ 4e\ 4g#\	.
4dn/	.	4ddn/	4r	.
*v	*v	*	*	*
*	*v	*v	*
=66	=66	=66
&(8c#\L&)	8.cc#/L	.
16r	.	.
16AA\Jk	16c#/ 16e/ 16g#/Jk	.
4B\	4b/	>
4A\	4c#/ 4e/ 4a/)	.
=67	=67	=67
*^	*^	*
2d/	4r	(2dd/	4r	.
.	4D\ 4A\	.	4f#\ 4a\	.
&(4f#/&)	4r	4ff#/	4r	.
*v	*v	*	*	*
=68	=68	=68	=68
2.r	8.ff#/L	8.f#\L	.
.	16a/ 16cc#/ 16dd#/Jk	16A\ 16d#\Jk	.
.	4ff#/	4f#\	>
.	4a/ 4cc#/ 4ee/	4e\	.
=69	=69	=69	=69
2.r	8.ff#/L	8.f#\L	.
.	16g#/ 16ddn/Jk 16dd#/	16E\Jk	.
.	4ff#/	4f#\	.
.	4g#/ 4ddn/ 4ee/	4e\	.
=70	=70	=70	=70
2.r	8aa/L)	8a\L	.
.	16r	16r	.
.	16a/ 16cc#/ (16dd#/Jk	16d#\Jk	.
.	4ff#/	4f#\	.
.	4a/ 4cc#/ 4ee/	4e\	.
*	*v	*v	*
=71	=71	=71
8.c#\L	8.cc#/L	.
16BB\Jk	16d/ 16an/Jk 16a#/	.
4c#\	4cc#/	.
&(4B\&)	4d/ 4an/ 4b/	.
=72	=72	=72
8.c#\L	8.cc#/L	.
16E\ 16A#\Jk	16e/ 16g#/ 16a#/Jk	.
4c#\	4cc#/	.
&(4B\&)	4e/ 4g#/ 4b/	.
=73	=73	=73
*^	*^	*
2B/	4r	2b/	4r	.
.	4BB\ 4F#\	.	4dn\ 4f#\	.
4dn/	4r	4ddn/	4r	.
*v	*v	*	*	*
*	*v	*v	*
=74	=74	=74
8.c#\L	8.cc#/L	.
(16FF#\Jk	16c#/ 16f#/ 16g#/Jk	.
4B\	4b/	.
4A\)	4c#/ 4f#/ 4a/)	.
=75	=75	=75
*^	*^	*
2d/	4r	(2dd/	4r	.
.	4D\ 4A\	.	4f#\ 4a\	.
4f#/	4r	4ff#/	4r	.
*v	*v	*	*	*
=76	=76	=76	=76
2.r	8.ff#/L	8.f#\L	.
.	16a/ 16cc#/ 16dd#/Jk	16A\ 16d#\Jk	.
.	4ff#/	4f#\	.
.	4a/ 4cc#/ 4ee/	4e\	.
=77	=77	=77	=77
2.r	8.ff#/L	8.f#\L	.
.	16g#/ 16ddn/Jk 16dd#/	16E\Jk	.
.	4ff#/	4f#\	.
.	4g#/ 4ddn/ 4ee/	4e\	.
=78	=78	=78	=78
2.r	8ccc#/L	8cc#\L	.
.	16r	16r	.
.	16a/ 16cc#/ 16dd#/Jk	16d#\Jk	.
.	4ff#/	4f#\	.
.	4a/ 4cc#/ 4ee/	&(4e\&)	.
*	*v	*v	*
=79	=79	=79
4c#\	8.ddn/L	.
.	16e/ 16a/ 16cc#/Jk	.
4d\	4dd\	.
4c#\	4e/ 4a/ 4cc#/	.
=80	=80	=80
8.B\L	8.b/L	.
16A\Jk	16c#/ 16e/ 16a/Jk	.
4B\	4b/	.
4A\	4c#/ 4e/ 4a/)	.
=81	=81	=81
*k[]	*k[]	*k[]
4E\	2B/ 2e/ (2g#/	p
[2E\	.	.
.	4A/ 4e/ 4f#/	.
=82	=82	=82
8.E/L]	8.B/ 8.e/ 8.g#/L	<
16AA/Jk	16c/ 16e/ 16a/Jk	.
2E\	2e/ 2g#/ 2cc/	.
=83	=83	=83
8.EE/L	8.d/ 8.e/ 8.b/L	.
16AA/Jk	16c/ 16e/ 16a/Jk	.
4E\	4B/ 4e/ 4g#/	.
4EE/	4A/ 4e/ 4f#/	.
=84	=84	=84
[4E\	8.B/ 8.e/ 8.g#/L	.
.	16d/ 16e/ 16b/Jk	.
8E\L]	2c/ 2e/ 2a/)	.
(8Fn\	.	.
8E\	.	.
8AA\J)	.	.
=85	=85	=85
4GG/	4e/ 4gn/ (4cc/	.
4.G\	4.d/ 4.g/ 4.b/	.
8G\	8c/ 8g/ 8a/	.
=86	=86	=86
8.G\L	8.d/ 8.g/ 8.b/L	<
16C\Jk	16e/ 16g/ 16cc/Jk	.
2G\	2g\ 2b\ 2ee\	.
=87	=87	=87
8.GG/L	8.f/ 8.g/ 8.dd/L	.
16C/Jk	16e/ 16g/ 16cc/Jk	.
4G\	4d/ 4g/ 4b/	.
4GG/	4c/ 4g/ 4a/	.
=88	=88	=88
4G\	8.d/ 8.g/ 8.b/L	.
.	16f/ 16g/ 16dd/Jk	.
4C/	4e/ 4g/ 4cc/	.
8.D\L	8.d/ 8.f/ 8.b/L	.
16D#\Jk	16c/ 16f#/ 16a/Jk	.
=89	=89	=89
2E\	4c/ 4e/ 4a/	.
.	4.B/ 4.e/ 4.g#/	.
[4E\	.	.
.	8A/ 8e/ 8f#/	.
=90	=90	=90
8.E/L]	8.B/ 8.e/ 8.g#/L	.
16AA/Jk	16c/ 16e/ 16a/Jk	.
2E\	2e/ 2g#/ 2cc/	.
=91	=91	=91
8.EE/L	8.d/ 8.e/ 8.b/L	.
16AA/Jk	16c/ 16e/ 16a/Jk	.
4E\	4B/ 4e/ 4g#/	.
4EE/	4A/ 4e/ 4f#/	.
=92	=92	=92
[4E\	8.B/ 8.e/ 8.g#/L	.
.	16d/ 16e/ 16b/Jk	.
8E\L]	2c/ 2e/ 2a/)	.
(8Fn\	.	.
8E\)	.	.
8AA\J	.	.
=93	=93	=93
4GG/	4e/ 4gn/ (4cc/	.
4.G\	4.d/ 4.g/ 4.b/	.
8G\	8c/ 8g/ 8a/	.
=94	=94	=94
8.G\L	8.d/ 8.g/ 8.b/L	.
16C\Jk	16e/ 16g/ 16cc/Jk	.
2G\	2g\ 2b\ 2ee\	.
=95	=95	=95
8.GG/L	8.f/ 8.g/ 8.dd/L	.
16C/Jk	16e/ 16g/ 16cc/Jk	.
4G\	4d/ 4g/ 4b/	.
4GG/	4c/ 4g/ 4a/	.
=96	=96	=96
4G\	8.d/ 8.g/ 8.b/L	.
.	16f/ 16g/ 16dd/Jk	.
4C/	2e/ 2g/ 2cc/)	>
([4c^\	.	.
=97	=97	=97
*	*^	*
8.c\L]	8.cc/L	4e\ 4g\	.
16B\Jk	16cc/Jk	.	.
12A\L	4..cc/	2f\ 2a\	.
12B\	.	.	.
12A\J	.	.	.
8G\L	.	.	.
8F\J	.	.	.
.	16dd/	.	.
=98	=98	=98	=98
8.E\L	4r	8g\ 8ee\L	.
.	.	16r	.
16D\Jk	.	16e\ 16g#\ 16ee\Jk	.
12C/L	4a/	2e\ 2ee\	.
12D/	.	.	.
12C/J	.	.	.
8BB/L	8b/L	.	.
8AA/J	8cc/J	.	.
*	*v	*v	*
=99	=99	=99
8.GGn/L	8.e\ 8.b\ 8.ee\L	.
16FF#/Jk	16a\ 16b\ 16ee\Jk	.
4EE/	4gn\ 4b\ 4ee\	.
4BBB/	4f#/ [4b/ 4dd#/	.
=100	=100	=100
4EEE/)	2.e/ 2.g#/ 2.b/] &(2.ee/&)	.
4EE/	.	.
4E\	.	.
=101	=101	=101
*	*^	*
8.c\L	8.a/L	4e\	.
16B\Jk	16a/Jk	.	.
12A\L	4..fn/ 4..a/	2d\ 2a\	.
12B\	.	.	.
12A\J	.	.	.
8Gn\L	.	.	.
8Fn\J	.	.	.
.	16b/	.	.
=102	=102	=102	=102
8.E\L	8.cc/L	4c\ 4a\	.
16D\Jk	16cc/Jk	.	.
12C/L	[2e/ [2a/ [2cc/	2r	.
12D/	.	.	.
12C/J	.	.	.
8BB/L	.	.	.
8AA/J	.	.	.
*	*v	*v	*
=103	=103	=103
8.GG/L	8.e/] 8.a/] 8.cc/L]	.
16FF/Jk	16d#/ 16a/ 16cc/Jk	.
4EE/	[4e/ 4a/ 4cc/	.
4EEE/	4dn/ 4e/] 4g#/ 4b/	.
=104	=104	=104
4AAA/	4c/ 4e/ 4a/	.
4AA/	4r	.
4A\	4r	.
=105	=105	=105
*	*^	*
8.c\L	(8.g/L	4e\ 4g\	.
16B\Jk	16cc/Jk	.	.
12A\L	4..cc/	2f\ 2a\	.
12B\	.	.	.
12A\J	.	.	.
8G\L	.	.	.
8F\J	.	.	.
.	16dd/	.	.
=106	=106	=106	=106
8.E\L	4r	8g\ 8ee\L	.
.	.	16r	.
16D\Jk	.	16e\ 16g#\ 16ee\Jk	.
12C/L	4a/	2e\ 2ee\	.
12D/	.	.	.
12C/J	.	.	.
8BB/L	8b/L	.	.
8AA/J	8cc/J	.	.
*	*v	*v	*
=107	=107	=107
8.GGn/L	8.e\ 8.b\ 8.ee\L	.
16FF#/Jk	16a\ 16b\ 16ee\Jk	.
4EE/	4gn\ 4b\ 4ee\	.
4BBB/	4f#/ [4b/ 4dd#/	.
=108	=108	=108
4EEE/	2.e/ 2.g#/ 2.b/] 2.ee/)	.
4EE/	.	.
4E\	.	.
=109	=109	=109
*	*^	*
8.c\L	(8.a/L	4e\	.
16B\Jk	16a/Jk	.	.
12A\L	4..fn/ 4..a/	2d\ 2a\	.
12B\	.	.	.
12A\J	.	.	.
8Gn\L	.	.	.
8Fn\J	.	.	.
.	16b/	.	.
=110	=110	=110	=110
8.E\L	8.cc/L	4c\ 4a\	.
16D\Jk	16cc/Jk	.	.
12C/L	[2e/ [2a/ [2cc/	2r	.
12D/	.	.	.
12C/J	.	.	.
8BB/L	.	.	.
8AA/J	.	.	.
*	*v	*v	*
=111	=111	=111
8.GG/L	8.e/] 8.a/] 8.cc/L]	.
16FF/Jk	16d#/ 16a/ 16cc/Jk	.
4EE/	[4e/ 4a/ 4cc/	.
4EEE/	4dn/ 4e/] 4g#/ 4b/	.
=112	=112	=112
*	*^	*
4AAA/	2.a;/)	4r	.
2AA;/ 2E;/	.	2c;\ 2e;\	.
*	*v	*v	*
==	==	==
*-	*-	*-
!!!SMS: Mikuli edition, G. Schirmer (1894-1898)
!!!ENC: Craig Stuart Sapp
!!!END: 2005/03/12/
